Newaita-dark/actions/32/draw-triangle4.svg

<svg height="32" viewBox="0 0 32 32" width="32" xmlns="http://www.w3.org/2000/svg"><path d="m15.941406 26.703125c.449219-.023437.855469-.269531 1.078125-.660156l10.585938-18.523438c.230469-.410156.230469-.910156-.003907-1.316406-.238281-.40625-.671874-.65625-1.140624-.65625h-21.167969c-.46875 0-.902344.25-1.140625.65625-.234375.40625-.234375.90625-.003906 1.316406l10.585937 18.523438c.246094.429687.710937.683593 1.207031.660156zm-.066406-3.96875-8.3125-14.550781h16.628906zm0 0" fill="#e0e0e0"/></svg>

<svg xmlns="http://www.w3.org/2000/svg" xmlns:xlink="http://www.w3.org/1999/xlink" width="32px" height="32px" viewBox="0 0 32 32" version="1.1">
<g id="surface1">
     <defs>
  <style id="current-color-scheme" type="text/css">
   .ColorScheme-Text { color:#eeeeee; } .ColorScheme-Highlight { color:#424242; }
  </style>
 </defs>
<path style="fill:currentColor" class="ColorScheme-Text" d="M 15.941406 26.703125 C 16.390625 26.679688 16.796875 26.433594 17.019531 26.042969 L 27.605469 7.519531 C 27.835938 7.109375 27.835938 6.609375 27.601562 6.203125 C 27.363281 5.796875 26.929688 5.546875 26.460938 5.546875 L 5.292969 5.546875 C 4.824219 5.546875 4.390625 5.796875 4.152344 6.203125 C 3.917969 6.609375 3.917969 7.109375 4.148438 7.519531 L 14.734375 26.042969 C 14.980469 26.472656 15.445312 26.726562 15.941406 26.703125 Z M 15.875 22.734375 L 7.5625 8.183594 L 24.191406 8.183594 Z M 15.875 22.734375 "/>
</g>
</svg>
